source/svgs/bowtie/uE010-file-to-database.svg

<svg xmlns="http://www.w3.org/2000/svg" viewBox="0 0 448 448" enable-background="new 0 0 448 448"><path d="M336 149.328c-53.938 0-112 16.688-112 53.344v85.328h32v-46.85c21.67 9.953 51.28 14.85 79.997 14.85 28.719 0 48.003-4.898 80.003-14.854v153.291c0 5.938-28.734 21.563-80.016 21.563-15.75 0-31.148-1.594-44.492-4.594l-7.059 31.188c15.656 3.531 33.471 5.406 51.564 5.406 53.939 0 112.003-16.687 112.003-53.344v-191.984c0-36.656-58.062-53.344-112-53.344zm0 74.672c-51.195 0-78.307-15.586-80-21.088v-.045c1.693-5.955 28.773-21.539 80-21.539 50.656 0 77.688 15.234 79.938 21.344-2.25 6.094-29.313 21.328-79.938 21.328zm-155.312 91.313l36.687 36.687h-121.375v-96h96v-198.625l-57.375-57.375h-134.625v256h64v128h153.375l-36.688 36.688 22.625 22.625 75.313-75.313-75.313-75.313-22.624 22.626zm-27.313-251.313h-25.375v-25.375l25.375 25.375zm-121.375 160v-192h64v64h64v128h-128z"/></svg>

<svg xmlns="http://www.w3.org/2000/svg" viewBox="0 0 448 448"><path d="M336 149.328c-53.938 0-112 16.688-112 53.344V288h32v-46.85c21.67 9.953 51.28 14.85 79.997 14.85 28.719 0 48.003-4.898 80.003-14.854v153.291c0 5.938-28.734 21.563-80.016 21.563-15.75 0-31.148-1.594-44.492-4.594l-7.059 31.188c15.656 3.531 33.471 5.406 51.564 5.406C389.936 448 448 431.313 448 394.656V202.672c0-36.656-58.062-53.344-112-53.344zM336 224c-51.195 0-78.307-15.586-80-21.088v-.045c1.693-5.955 28.773-21.539 80-21.539 50.656 0 77.688 15.234 79.938 21.344C413.688 208.766 386.625 224 336 224zm-155.312 91.313L217.375 352H96v-96h96V57.375L134.625 0H0v256h64v128h153.375l-36.688 36.688 22.625 22.625L278.625 368l-75.313-75.313-22.624 22.626zM153.375 64H128V38.625L153.375 64zM32 224V32h64v64h64v128H32z"/></svg>
